X:1
T:Ó, mely sok hal terem az nagy Balatonba
C:Hungarian folk song
Z:Public Domain
L:1/8
M:2/4
K:C
V:1 treble nm="Voice"
%%MIDI program 52
V:1
 AA BA | G<G GE | DE F2 | DE EE | EA E z :| G<F ED | C2 A,2 | AE ED | C2 A,2 | G,G, D2 | %10
w: Ó, mely sok hal|te- rem az nagy|Ba- la- ton-|ba, * * *||Ö- rül ott a|ha- lász,|rik- kon- gat a|ka- nász|Ö- rö- mé-|
w: Min- den á- gon|egy mé- rő makk|a Ba- kony-|ba, * * *|||||||
 A,A, A,A, | A,D A,2 |] %12
w: be!- * * *||
w: ||

